X:1
T: The Merry Huntsman
C:
R:Jig
Q:180
K:F
M:6/8
L:1/16
ag|f2c2A2 A2c2A2|f2c2A2 f2a2g2|f2c2A2 A2c2A2|d2B2G2 G4e2|f2c2A2 A2c2A2|f2c2A2 e2f2g2|a2f2d2 g2e2c2|d2B2G2 G4z2|
c4a2 g2e2c2|g2e2c2 e2f2g2|c4a2 g2e2c2|d2=B2G2 B2c2d2|c4a2 g2e2c2|g2e2c2 e2f2g2|a2f2d2 g2e2c2|d2=B2G2 B2c2d2|
c4a2 g2e2c2|g2e2c2 e2f2g2|c4a2 g2e2c2|d2=B2G2 B2c2d2|c4a2 g2e2c2|g2e2c2 e2f2g2|a2f2d2 g2e2c2|d2=B2G2 f2a2g2|
f2c2A2 A2c2A2|f2c2A2 f2a2g2|f2c2A2 A2c2A2|d2B2G2 G4e2|f2c2A2 A2c2A2|f2c2A2 e2f2g2|a2f2d2 g2e2c2|d2B2G2 G4||
